X:190
T:Josephine's
M:3/4
L:1/4
R:Waltz
K:G
|:"G"DGA|B d c|BAG|D2 E|"C" C2 C/2C/2|EGF|E3|"D"D3|
"G"DGA|B d c|BAG|D2 E|"C"C2 C/2C/2| DFG|("D"A3|1A3 :|2A)Bc|
|:"G"dBd|g2f|"C"e3|"G"d3|"C"ced|cBA|"G"B>c B|"D"ABc:|
|"Em"BAG|"D"F2G|"C"G3|CDC|"G"B,DG|"D"FEF|"G"G3|G3|
